assets/companies/spotter.svg

<svg xmlns="http://www.w3.org/2000/svg" viewBox="0 0 125 30" id="spotterla_spotterlogo"><path fill="currentColor" d="M64.099 5.86025L61.9478 4.05147L55.7693 11.4331V1.79752H52.9609V11.4331L46.7825 4.05147L44.6313 5.86025L50.8097 13.2419L41.3511 11.5515L40.8624 14.3238L50.3211 16.0143L41.9858 20.8321L43.39 23.272L51.7084 18.4542L48.4226 27.5094L51.0625 28.473L54.3483 19.4177L57.6341 28.473L60.2683 27.5094L56.9882 18.4542L65.301 23.272L66.7052 20.8321L58.3924 16.0143L67.851 14.3238L67.3623 11.5515L57.9037 13.2419L64.099 5.86025ZM12.1215 21.2603C11.1725 21.7788 10.1006 22.0282 9.021 21.9816C7.77941 22.0385 6.55308 21.6884 5.52738 20.9842C5.10545 20.6961 4.75427 20.3157 4.50032 19.8715C4.24637 19.4274 4.09629 18.9312 4.0614 18.4204H0.000483561C-0.0119114 19.4057 0.21415 20.3793 0.659272 21.2577C1.10439 22.1361 1.75529 22.893 2.55611 23.4636C4.20744 24.6732 6.37551 25.2799 9.06032 25.2836C10.5259 25.3051 11.9821 25.047 13.3515 24.5229C14.5355 24.0815 15.5753 23.3211 16.3565 22.3253C17.0843 21.3789 17.4704 20.2128 17.4518 19.0176C17.5169 17.8103 17.1415 16.6205 16.3958 15.6705C15.6469 14.817 14.6737 14.1921 13.5874 13.8674C12.174 13.4413 10.7212 13.16 9.25129 13.0278C7.97629 12.87 7.05513 12.7291 6.48222 12.6165C5.96315 12.5238 5.47388 12.3073 5.05557 11.9854C4.8628 11.8199 4.71153 11.6113 4.61396 11.3764C4.51639 11.1414 4.47526 10.8868 4.49389 10.633C4.49029 10.2414 4.59292 9.8563 4.79081 9.51881C4.9887 9.18132 5.27438 8.9042 5.61725 8.71713C6.52134 8.21041 7.54831 7.9665 8.5829 8.01277C9.66533 7.97099 10.7325 8.27914 11.6272 8.89181C12.0043 9.14592 12.3221 9.47898 12.5587 9.86807C12.7953 10.2572 12.945 10.6931 12.9977 11.1458H17.0923C17.0671 10.21 16.8226 9.29343 16.3786 8.47013C15.9346 7.64684 15.3036 6.93999 14.5367 6.40683C12.964 5.27986 10.9138 4.71638 8.38631 4.71638C6.97497 4.69203 5.57369 4.95861 4.26923 5.49962C3.13627 5.96312 2.15142 6.72898 1.42152 7.71413C0.732524 8.6621 0.369763 9.80927 0.388042 10.9823C0.329733 12.1145 0.698734 13.227 1.42152 14.0984C2.16123 14.9005 3.10503 15.485 4.15127 15.7889C5.56206 16.1942 7.00544 16.4751 8.46495 16.6285C9.73995 16.7862 10.6836 16.9384 11.2733 17.0793C11.8178 17.1861 12.324 17.4371 12.7393 17.8062C12.9358 18.0059 13.0876 18.2455 13.1845 18.5088C13.2814 18.7722 13.3211 19.0532 13.301 19.3332C13.2981 19.7318 13.1868 20.122 12.9789 20.4616C12.771 20.8013 12.4745 21.0775 12.1215 21.2603ZM19.339 4.98686H23.0067L23.5179 7.96206C24.2597 6.93344 25.2415 6.10284 26.3773 5.54292C27.5131 4.983 28.7684 4.71082 30.0333 4.75018C31.7406 4.71972 33.4253 5.14564 34.9143 5.98422C36.3596 6.81639 37.531 8.05422 38.2843 9.54545C39.1256 11.2414 39.542 13.1175 39.4976 15.0113C39.536 16.8792 39.1195 18.7283 38.2843 20.3982C37.5274 21.8971 36.3578 23.1467 34.9143 23.9989C33.4339 24.863 31.7457 25.3034 30.0333 25.2723C28.6989 25.3035 27.3757 25.0218 26.169 24.4497C25.1207 23.9346 24.2215 23.1586 23.5572 22.1957V30H19.339V4.98686ZM23.5179 14.9324C23.4385 16.7058 24.0078 18.4472 25.1186 19.8291C25.6332 20.442 26.2796 20.9299 27.0093 21.2559C27.739 21.5819 28.5329 21.7375 29.3312 21.7111C30.1328 21.7373 30.9299 21.5816 31.6632 21.2557C32.3964 20.9299 33.0469 20.4422 33.5663 19.8291C34.6822 18.4796 35.2605 16.7633 35.1895 15.0113C35.2698 13.2579 34.6904 11.5384 33.5663 10.1935C33.0249 9.6177 32.372 9.15898 31.6476 8.84546C30.9232 8.53193 30.1426 8.3702 29.3537 8.3702C28.5647 8.3702 27.7841 8.53193 27.0597 8.84546C26.3354 9.15898 25.6824 9.6177 25.1411 10.1935C24.0294 11.5145 23.4504 13.2048 23.5179 14.9324ZM74.6866 0H70.4291V19.5924C70.4291 21.4463 70.8672 22.8212 71.7378 23.7059C72.6084 24.5905 73.9845 25.0357 75.8998 25.0357H79.4889V21.3167H76.7592C76.4732 21.3467 76.1841 21.3188 75.9092 21.2346C75.6342 21.1504 75.3789 21.0116 75.1584 20.8264C74.7968 20.3524 74.6282 19.7582 74.6866 19.1642V8.70586H79.4889V4.98686H74.6866V0ZM90.6663 8.70586V4.98686H85.8246V0H81.6064V19.5924C81.6064 21.4463 82.0333 22.8212 82.8927 23.7059C83.752 24.5905 85.1394 25.0357 87.0322 25.0357H91.0931V21.3167H87.8916C87.6057 21.3455 87.3169 21.3169 87.0421 21.2328C86.7673 21.1486 86.5119 21.0105 86.2908 20.8264C85.9313 20.3515 85.7646 19.7575 85.8246 19.1642V8.70586H90.6663ZM109.949 9.26934C110.823 10.8141 111.273 12.5643 111.252 14.3407C111.252 14.878 111.215 15.4147 111.139 15.9467H96.0696V16.1382C96.0842 17.677 96.6688 19.1552 97.7097 20.2855C98.2241 20.799 98.8392 21.1999 99.5159 21.4627C100.193 21.7256 100.916 21.8447 101.641 21.8125C102.801 21.8531 103.945 21.5323 104.916 20.8941C105.805 20.2766 106.432 19.3481 106.674 18.2908H110.892C110.56 20.2703 109.51 22.0566 107.943 23.3058C106.237 24.6437 104.115 25.336 101.95 25.2611C100.056 25.307 98.1811 24.8688 96.5021 23.9876C94.9838 23.1686 93.7365 21.9232 92.913 20.4038C92.0392 18.7542 91.6021 16.9071 91.6436 15.0394C91.6021 13.1566 92.0246 11.2927 92.8737 9.61307C93.6504 8.10612 94.8439 6.85592 96.3111 6.01239C97.8532 5.14419 99.5982 4.70458 101.366 4.73892C103.135 4.70111 104.885 5.10381 106.461 5.91097C107.914 6.6733 109.123 7.8315 109.949 9.25244V9.26934ZM106.96 12.8362C106.852 11.51 106.229 10.2796 105.225 9.41022C104.184 8.56522 102.873 8.12687 101.535 8.17618C100.229 8.14821 98.9579 8.60127 97.9624 9.44966C97.464 9.86946 97.0538 10.3846 96.7558 10.9651C96.4578 11.5455 96.278 12.1797 96.2269 12.8306L106.96 12.8362ZM117.576 14.9887C117.516 13.4596 117.926 11.9489 118.75 10.6612C119.531 9.53418 120.795 8.9707 122.536 8.9707H124.412V5.02629H123.474C122.202 4.96464 120.937 5.24065 119.806 5.82644C118.883 6.36214 118.11 7.12406 117.559 8.04095L117.093 5.02629H113.347V25.0751H117.559L117.576 14.9887Z"></path></svg>

<svg xmlns="http://www.w3.org/2000/svg" preserveAspectRatio="xMinYMin" viewBox="0 0 125 30"><path fill="currentColor" d="m64.099 5.86-2.151-1.809-6.179 7.382V1.798h-2.808v9.635l-6.178-7.382-2.152 1.81 6.179 7.38-9.459-1.69-.489 2.773 9.46 1.69-8.336 4.818 1.404 2.44 8.318-4.818-3.285 9.055 2.64.964 3.285-9.055 3.286 9.055 2.634-.964-3.28-9.055 8.313 4.818 1.404-2.44-8.313-4.818 9.459-1.69-.489-2.772-9.458 1.69zm-51.978 15.4a5.93 5.93 0 0 1-3.1.722 5.7 5.7 0 0 1-3.494-.998 3.38 3.38 0 0 1-1.466-2.564H.001a6.1 6.1 0 0 0 2.555 5.044q2.477 1.814 6.504 1.82a11.5 11.5 0 0 0 4.291-.761 6.87 6.87 0 0 0 3.005-2.198 5.3 5.3 0 0 0 1.096-3.307 5 5 0 0 0-1.056-3.348 6.04 6.04 0 0 0-2.809-1.803 21.8 21.8 0 0 0-4.336-.84c-1.275-.157-2.196-.298-2.769-.41a3.3 3.3 0 0 1-1.426-.632 1.62 1.62 0 0 1-.562-1.352 2.16 2.16 0 0 1 1.123-1.916 5.56 5.56 0 0 1 2.966-.704 5.04 5.04 0 0 1 3.044.879 3.15 3.15 0 0 1 1.37 2.254h4.095a5.98 5.98 0 0 0-2.555-4.74q-2.36-1.69-6.15-1.69a10.3 10.3 0 0 0-4.118.784 6.7 6.7 0 0 0-2.847 2.214 5.4 5.4 0 0 0-1.034 3.268 4.52 4.52 0 0 0 1.034 3.116 6 6 0 0 0 2.73 1.69 25 25 0 0 0 4.313.84c1.275.158 2.219.31 2.808.451a3.1 3.1 0 0 1 1.466.727 1.97 1.97 0 0 1 .562 1.527 2.19 2.19 0 0 1-1.18 1.927M19.34 4.987h3.668l.51 2.975a7.75 7.75 0 0 1 2.86-2.42 7.7 7.7 0 0 1 3.656-.792 9.6 9.6 0 0 1 4.881 1.234 8.56 8.56 0 0 1 3.37 3.561 11.7 11.7 0 0 1 1.214 5.466 11.5 11.5 0 0 1-1.214 5.387 8.77 8.77 0 0 1-3.37 3.6 9.35 9.35 0 0 1-4.88 1.274 8.55 8.55 0 0 1-3.865-.822 6.84 6.84 0 0 1-2.612-2.254V30H19.34zm4.179 9.945a7.3 7.3 0 0 0 1.6 4.897 5.28 5.28 0 0 0 4.213 1.882 5.31 5.31 0 0 0 4.235-1.882 7.1 7.1 0 0 0 1.623-4.818 7 7 0 0 0-1.623-4.817 5.8 5.8 0 0 0-4.212-1.824 5.78 5.78 0 0 0-4.213 1.824 6.94 6.94 0 0 0-1.623 4.738M74.687 0h-4.258v19.592c0 1.854.438 3.23 1.309 4.114.87.884 2.246 1.33 4.162 1.33h3.589v-3.72h-2.73a2.14 2.14 0 0 1-1.6-.49 2.36 2.36 0 0 1-.472-1.662V8.706h4.802v-3.72h-4.802zm15.98 8.706v-3.72h-4.842V0h-4.219v19.592c0 1.854.427 3.23 1.287 4.114s2.246 1.33 4.14 1.33h4.06v-3.72h-3.201a2.16 2.16 0 0 1-1.601-.49 2.36 2.36 0 0 1-.466-1.662V8.706zm19.282.563a10.06 10.06 0 0 1 1.303 5.072q0 .807-.113 1.606h-15.07v.191a6.2 6.2 0 0 0 1.64 4.147 5.24 5.24 0 0 0 3.932 1.527 5.6 5.6 0 0 0 3.275-.918 4.35 4.35 0 0 0 1.758-2.603h4.218a8.13 8.13 0 0 1-2.949 5.015 9.2 9.2 0 0 1-5.993 1.955 11.14 11.14 0 0 1-5.448-1.273 8.9 8.9 0 0 1-3.589-3.584 10.94 10.94 0 0 1-1.27-5.365 11.5 11.5 0 0 1 1.23-5.426 8.8 8.8 0 0 1 3.438-3.6 9.9 9.9 0 0 1 5.055-1.274 10.7 10.7 0 0 1 5.095 1.172 8.7 8.7 0 0 1 3.488 3.341zm-2.989 3.567a5.08 5.08 0 0 0-1.735-3.426 5.53 5.53 0 0 0-3.69-1.234 5.33 5.33 0 0 0-3.573 1.274 4.92 4.92 0 0 0-1.735 3.38zm10.616 2.153c-.06-1.53.35-3.04 1.174-4.328q1.173-1.69 3.786-1.69h1.876V5.026h-.938a7.2 7.2 0 0 0-3.668.8 6.3 6.3 0 0 0-2.247 2.215l-.466-3.015h-3.746v20.05h4.212z"/></svg>
